!!!COM: Corelli, Arcangelo
!!!OTL: 
!!!ONM: Opus 5, No. 9
!!!OMV: 2
!!!CDT: 1653/2/17/-1713/1/8/
!!!OCY: Italia
**kern	**kern	**kern
*clefC	*clefG	*clefG
*k[f#c#]	*k[f#c#]	*k[f#c#]
*D:	*D:	*D:
*M12/8	*M12/8	*M12/8
2..r	2..r	2..r
2r	2r	2r
8r	8r	8ee
=1	=1	=1
4.A	1.r	4cc#
.	.	8ee
4.G#	.	4b
.	.	8ee
4.F#	.	4.a
4.C#	.	4r
.	.	8e
=2	=2	=2
4.D	1.r	8f#
.	.	8a
.	.	8dd
4.E	.	8g#
.	.	8b
.	.	8ee
4.A	.	8cc#
.	.	8b
.	.	8a
4.G#	.	4r
.	.	8ee
=3	=3	=3
4.A	1.r	8cc#
.	.	8b
.	.	8a
4.E	.	8g#
.	.	8b
.	.	8ee
4.A	.	8a
.	.	8cc#
.	.	8ee
4.E	.	8g#
.	.	8b
.	.	8ee
=4	=4	=4
4.AA	1.r	8cc#
.	.	8dd#
.	.	8ee
4.BB	.	8f#
.	.	8ee
.	.	8dd#
8E	.	4.e
8F#	.	.
8E	.	.
8D	.	4r
8E	.	.
8D	.	8e
=5	=5	=5
4.C#	1.r	8a
.	.	8b
.	.	8cc#
4r	.	4a
8AA	.	8cc#
8D	.	4.f#
8E	.	.
8F#	.	.
8D	.	4r
8F#	.	.
8D	.	8f#
=6	=6	=6
4.BB	1.r	8b
.	.	8cc#
.	.	8dd
4r	.	8b
.	.	8dd
8BB	.	8b
8E	.	4.g#
8F#	.	.
8G#	.	.
8E	.	4r
8G#	.	.
8E	.	8g#
=7	=7	=7
4.C#	1.r	8cc#
.	.	8dd
.	.	8ee
4r	.	4cc#
8C#	.	8ee
8F#	.	4.a
8G#	.	.
8A	.	.
8F#	.	4r
8A	.	.
8F#	.	8a
=8	=8	=8
4.D	1.r	8dd
.	.	8ee
.	.	8ff#
4.d	.	8ff#
.	.	8gg
.	.	8ff#
4.c#	.	8ee
.	.	8aa
.	.	8ee
4.C#	.	8cc#
.	.	8a
.	.	8cc#
=9	=9	=9
4.BB	1.r	8dd
.	.	8ee
.	.	8ff#
4.E	.	8g#
.	.	8b
.	.	8ee
4.A	.	8a
.	.	8cc#
.	.	8ff#
4.r	.	8ff#
.	.	8gg
.	.	8ff#
=10	=10	=10
4.G#	1.r	8g#
.	.	8b
.	.	8ee
4.r	.	8ee
.	.	8ff#
.	.	8ee
4.F#	.	8f#
.	.	8a
.	.	8dd
4.r	.	8dd
.	.	8ee
.	.	8dd
=11	=11	=11
4.E	1.r	8e
.	.	8g#
.	.	8cc#
4.r	.	8cc#
.	.	8dd
.	.	8cc#
4.D	.	8d
.	.	8f#
.	.	8b
4.r	.	8b
.	.	8cc#
.	.	8b
=12	=12	=12
4.C#	2..r	8c#
.	.	8e
.	.	8a
4.r	.	8ee
.	.	8dd
.	.	8cc#
4.D	.	8b
.	4r	8cc#
.	.	8d
4.E	4.e	4b
.	.	8a
=13	=13	=13
8A	1.r	4.a
8B	.	.
8A	.	.
8A	.	4r
8B	.	.
8A	.	8a
4.G#	.	8b
.	.	8cc#
.	.	8dd
4r	.	8b
.	.	8cc#
8G#	.	8dd
=14	=14	=14
8A	1.r	4.cc#
8B	.	.
8c#	.	.
8A	.	4r
8B	.	.
8c#	.	8cc#
4.B	.	8dd#
.	.	8ee
.	.	8ff#
4r	.	8dd#
.	.	8ee
8BB	.	8ff#
=15	=15	=15
8E	1.r	4gg#
8F#	.	.
8E	.	8b
8E	.	4.cc#
8F#	.	.
8E	.	.
4.D#	.	4r
.	.	8f#
4r	.	4.b
8G#	.	.
=16	=16	=16
8C#	1.r	4r
8D	.	.
8C#	.	8e
8C#	.	4.a
8D	.	.
8C#	.	.
4.BB	.	4r
.	.	8d#
4r	.	4.g#
8E	.	.
=17	=17	=17
8AA	1.r	4r
8BB	.	.
8AA	.	8c#
8AA	.	4.f#
8BB	.	.
8AA	.	.
4.GG#	.	4r
.	.	8B
4r	.	4e
8GG#	.	8b
=18	=18	=18
8AA	1.r	4ee
8GG#	.	.
8AA	.	8g#
8BB	.	4.f#
8AA	.	.
8BB	.	.
4.E	.	4e
.	.	8b
4r	.	4ee
8E	.	8g#
=19	=19	=19
8AA	1.r	4cc#
8GG#	.	.
8AA	.	8f#
8BB	.	4.f#
8AA	.	.
8BB	.	.
[2EE	.	[2e
8EE]	.	8e]
8r	.	8b
=20	=20	=20
4.E	1.r	4g#
.	.	8b
4.D#	.	4f#
.	.	8b
4.E	.	4g#
.	.	8b
4.r	.	4e
.	.	8cc#
=21	=21	=21
4.c#	1.r	8a
.	.	8g#
.	.	8f#
4.C#	.	8c#
.	.	8f#
.	.	8e#
4.F#	.	4.f#
4.FF#	.	4r
.	.	8ff#
=22	=22	=22
4.B	1.r	4dd
.	.	8ff#
4.A#	.	4cc#
.	.	8ff#
4.B	.	4dd
.	.	8ff#
4.r	.	4b
.	.	8ff#
=23	=23	=23
4.f#	1.r	8dd
.	.	8cc#
.	.	8b
4.F#	.	4f#
.	.	8a#
4.B	.	4.b
4.BB	.	4r
.	.	8gg#
=24	=24	=24
4.c#	1.r	4ee
.	.	8gg#
4.B#	.	4dd#
.	.	8gg#
4.c#	.	4ee
.	.	8gg#
4.r	.	4cc#
.	.	8gg#
=25	=25	=25
4.g#	1.r	8ee
.	.	8dd#
.	.	8cc#
4.G#	.	8g#
.	.	8cc#
.	.	8b#
4.c#	.	[2.cc#
4.B	.	.
=26	=26	=26
4.A	1.r	4.cc#]
4.G#	.	4cc#
.	.	8b
4.F#	.	4a
.	.	8cc#
4.E	.	4g#
.	.	8cc#
=27	=27	=27
4.D#	1.r	4f#
.	.	8b#
4.C#	.	4cc#
.	.	8dd#
4.G#	.	8ee
.	.	8dd#
.	.	8cc#
4.GG#	.	8g#
.	.	8cc#
.	.	8b#
=28	=28	=28
2.C#	1.r	4.cc#
.	.	4r
.	.	8ee
4.A	.	4cc#
.	.	8ee
4.G#	.	4b
.	.	8ee
=29	=29	=29
4.F#	1.r	4.a
4.C#	.	4r
.	.	8e
4.D	.	8f#
.	.	8a
.	.	8dd
4.E	.	8g#
.	.	8b
.	.	8ee
=30	=30	=30
4.A	1.r	8cc#
.	.	8b
.	.	8a
4.G#	.	4r
.	.	8ee
4.A	.	8cc#
.	.	8b
.	.	8a
4.E	.	8g#
.	.	8b
.	.	8ee
=31	=31	=31
4.A	1.r	8a
.	.	8cc#
.	.	8ee
4.E	.	8g#
.	.	8b
.	.	8ee
4.AA	.	8cc#
.	.	8dd#
.	.	8ee
4.BB	.	8f#
.	.	8ee
.	.	8dd#
=32	=32	=32
8E	1.r	4.e
8F#	.	.
8E	.	.
8D	.	4r
8E	.	.
8D	.	8e
4.C#	.	8a
.	.	8b
.	.	8cc#
4r	.	4a
8AA	.	8cc#
=33	=33	=33
8D	1.r	4.f#
8E	.	.
8F#	.	.
8D	.	4r
8F#	.	.
8D	.	8f#
4.BB	.	8b
.	.	8cc#
.	.	8dd
4r	.	8b
.	.	8dd
8BB	.	8b
=34	=34	=34
8E	1.r	4.g#
8F#	.	.
8G#	.	.
8E	.	4r
8G#	.	.
8E	.	8g#
4.C#	.	8cc#
.	.	8dd
.	.	8ee
4r	.	4cc#
8C#	.	8ee
=35	=35	=35
8F#	1.r	4.a
8G	.	.
8A	.	.
8F#	.	4r
8A	.	.
8F#	.	8a
4.D	.	8dd
.	.	8ee
.	.	8ff#
4.d	.	8ff#
.	.	8gg
.	.	8ff#
=36	=36	=36
4.c#	1.r	8ee
.	.	8aa
.	.	8ee
4.C#	.	8cc#
.	.	8a
.	.	8cc#
4.BB	.	8dd
.	.	8ee
.	.	8ff#
4.E	.	8g#
.	.	8b
.	.	8ee
=37	=37	=37
4.A	1.r	8a
.	.	8cc#
.	.	8ff#
4.r	.	8ff#
.	.	8gg
.	.	8ff#
4.G#	.	8g#
.	.	8b
.	.	8ee
4.r	.	8ee
.	.	8ff#
.	.	8ee
=38	=38	=38
4.F#	1.r	8f#
.	.	8a
.	.	8dd
4.r	.	8dd
.	.	8ee
.	.	8dd
4.E	.	8e
.	.	8g#
.	.	8cc#
4.r	.	8cc#
.	.	8dd
.	.	8cc#
=39	=39	=39
4.D	1.r	8d
.	.	8f#
.	.	8b
4.r	.	8b
.	.	8cc#
.	.	8b
4.C#	.	8c#
.	.	8e
.	.	8a
4.r	.	8ee
.	.	8dd
.	.	8cc#
=40	=40	=40
4.D	4.r	8b
.	.	8cc#
.	.	8d
4.E	4.e	4b
.	.	8a
4.A	[2.a	[2.a
4.G#	.	.
=41	=41	=41
4.F#	4.a]	4.a]
4.E	4a	4a
.	2..r	8g#
4.D	.	4f#
.	.	8a
4.C#	.	4e
.	.	8a
=42	=42	=42
4.BB	1.r	4d
.	.	8g#
4.AA	.	4a
.	.	8b
4.E	.	8cc#
.	.	8b
.	.	8a
4.EE	.	4e
.	.	8g#
=43	=43	=43
4.A	[2..a	[2.a
4.G#	.	.
4.F#	.	4.a]
.	4a]	.
4.E	4a	4a
.	8r	8g#
=44	=44	=44
4.D	1.r	4f#
.	.	8a
4.C#	.	4e
.	.	8a
4.BB	.	4d
.	.	8g#
4.AA	.	4a
.	.	8b
=45	=45	=45
4.E	1.r	8cc#
.	.	8b
.	.	8a
4.EE	.	4e
.	.	8g#
[2AA	.	[2A
8AA]	.	8A]
8r	.	8r
==	==	==
*-	*-	*-
!!!RWG: This file only contains pitch and duration data.
!!!RWG: Transposing instruments are not transposed.
!!!RWG: Durations of rests and tied notes may be interpreted.
!!!RWG: Key is interpreted using the Humdrum key tool.
!!!SCA: 
!!!YOR: 
!!!AGN: violin
!!!AFT: stage1
!!!ENC: F. Bennion
!!!END: 1997/04/15
!!!AST: baroque
!!!YEC: Copyright 1994, Center for Computer Assisted Research in the Humanities
!!!YEM: Rights to all derivative electronic formats reserved.
!!!YEM: Refer to licensing agreement for further details.
!!!YEN: United States of America
!!!EED: W.B. Hewlett
!!!KEY: 3286210037
!!!EMD: Converted from MuseData to Humdrum Aug 9, 1999, by Bret Aarden using muse2kern.
!!!VTS: 2960170793
